svg/fluentui-system-icons/ic_fluent_tv_arrow_right_20_regular.svg

<svg width="20" height="20" viewBox="0 0 20 20" fill="none" xmlns="http://www.w3.org/2000/svg">
<path d="M19 5.5C19 7.98528 16.9853 10 14.5 10C12.0147 10 10 7.98528 10 5.5C10 3.01472 12.0147 1 14.5 1C16.9853 1 19 3.01472 19 5.5ZM16.8532 5.85395L16.8557 5.85143C16.9026 5.80398 16.938 5.74949 16.9621 5.69139C16.9861 5.63331 16.9996 5.5697 17 5.503L17 5.5L17 5.497C16.9996 5.4303 16.9861 5.36669 16.9621 5.30861C16.9377 5.24964 16.9015 5.19439 16.8536 5.14645L14.8536 3.14645C14.6583 2.95118 14.3417 2.95118 14.1464 3.14645C13.9512 3.34171 13.9512 3.65829 14.1464 3.85355L15.2929 5H12.5C12.2239 5 12 5.22386 12 5.5C12 5.77614 12.2239 6 12.5 6L15.2929 6L14.1464 7.14645C13.9512 7.34171 13.9512 7.65829 14.1464 7.85355C14.3417 8.04881 14.6583 8.04882 14.8536 7.85355L16.8532 5.85395ZM17 13V10.4003C17.3578 10.2174 17.6929 9.99647 18 9.74284V13C18 14.1046 17.1046 15 16 15H4C2.89543 15 2 14.1046 2 13V6C2 4.89543 2.89543 4 4 4H9.20703C9.11588 4.32228 9.05337 4.65659 9.02242 5H4C3.44772 5 3 5.44772 3 6V13C3 13.5523 3.44772 14 4 14H16C16.5523 14 17 13.5523 17 13ZM5 16.5C5 16.2239 5.22386 16 5.5 16H14.5C14.7761 16 15 16.2239 15 16.5C15 16.7761 14.7761 17 14.5 17H5.5C5.22386 17 5 16.7761 5 16.5Z" fill="#212121"/>
</svg>

<svg xmlns="http://www.w3.org/2000/svg" width="20" height="20"><path d="M19 5.5a4.5 4.5 0 1 1-9 0 4.5 4.5 0 0 1 9 0Zm-2.147.354.003-.003A.5.5 0 0 0 17 5.503v-.006a.5.5 0 0 0-.146-.35l-2-2a.5.5 0 0 0-.708.707L15.293 5H12.5a.5.5 0 0 0 0 1h2.793l-1.147 1.146a.5.5 0 0 0 .708.708l2-2ZM17 13v-2.6a5.507 5.507 0 0 0 1-.657V13a2 2 0 0 1-2 2H4a2 2 0 0 1-2-2V6a2 2 0 0 1 2-2h5.207a5.48 5.48 0 0 0-.185 1H4a1 1 0 0 0-1 1v7a1 1 0 0 0 1 1h12a1 1 0 0 0 1-1ZM5 16.5a.5.5 0 0 1 .5-.5h9a.5.5 0 0 1 0 1h-9a.5.5 0 0 1-.5-.5Z"/></svg>
